src/icons/partners-agenciya.svg

<svg width="300" height="87" viewBox="0 0 300 87" fill="none" xmlns="http://www.w3.org/2000/svg">
<g clip-path="url(#clip0_1768_4866)">
<path d="M217.231 82.6079H204.129L216.542 44.0059H229.644L217.231 82.6079Z" fill="currentColor" stroke="currentColor" stroke-width="0.328699" stroke-miterlimit="10"/>
<path d="M229.721 43.5616H216.565L203.965 4.6543H216.711L229.721 43.5616Z" fill="currentColor" stroke="currentColor" stroke-width="0.345134" stroke-miterlimit="10"/>
<path d="M247.67 43.494L234.661 43.5604L203.965 4.66049L216.747 4.65234L247.67 43.494Z" fill="currentColor" stroke="currentColor" stroke-width="0.333395" stroke-miterlimit="10"/>
<path d="M217.291 82.6079L204.359 82.5256L234.703 44.0059L247.686 44.0181L217.291 82.6079Z" fill="currentColor" stroke="currentColor" stroke-width="0.328699" stroke-miterlimit="10"/>
<path d="M199.278 82.6079H186.176L198.589 44.0059H211.692L199.278 82.6079Z" fill="currentColor" stroke="currentColor" stroke-width="0.328699" stroke-miterlimit="10"/>
<path d="M211.773 43.5616H198.616L186.016 4.6543H198.762L211.773 43.5616Z" fill="currentColor" stroke="currentColor" stroke-width="0.345134" stroke-miterlimit="10"/>
<path d="M229.721 43.494L216.712 43.5604L186.016 4.66049L198.799 4.65234L229.721 43.494Z" fill="currentColor" stroke="currentColor" stroke-width="0.333395" stroke-miterlimit="10"/>
<path d="M199.338 82.6079L186.406 82.5256L216.75 44.0059L229.733 44.0181L199.338 82.6079Z" fill="currentColor" stroke="currentColor" stroke-width="0.328699" stroke-miterlimit="10"/>
<path d="M181.56 82.6079H168.457L180.87 44.0059H193.972L181.56 82.6079Z" fill="currentColor" stroke="currentColor" stroke-width="0.328699" stroke-miterlimit="10"/>
<path d="M194.05 43.5616H180.893L168.293 4.6543H181.039L194.05 43.5616Z" fill="currentColor" stroke="currentColor" stroke-width="0.345134" stroke-miterlimit="10"/>
<path d="M211.998 43.494L198.99 43.5604L168.293 4.66049L181.076 4.65234L211.998 43.494Z" fill="currentColor" stroke="currentColor" stroke-width="0.333395" stroke-miterlimit="10"/>
<path d="M181.619 82.6079L168.688 82.5256L199.032 44.0059L212.015 44.0181L181.619 82.6079Z" fill="currentColor" stroke="currentColor" stroke-width="0.328699" stroke-miterlimit="10"/>
<path d="M109.031 82.6342C106.514 82.6342 104.852 80.9053 104.852 78.2553C104.852 75.6509 106.537 73.877 109.031 73.877C111.57 73.877 113.233 75.6058 113.233 78.2553C113.233 80.8603 111.525 82.6342 109.031 82.6342ZM109.031 81.1293C110.491 81.1293 111.458 80.007 111.458 78.2553C111.458 76.5042 110.491 75.3812 109.031 75.3812C107.57 75.3812 106.604 76.5042 106.604 78.2553C106.604 80.007 107.57 81.1293 109.031 81.1293ZM118.715 77.2896C120.626 77.2896 121.794 78.2781 121.794 79.8718C121.794 81.5341 120.626 82.5219 118.715 82.5219H114.985V73.9892H121.097V75.4935H116.716V77.2896H118.715ZM118.513 81.1071C119.524 81.1071 120.041 80.6807 120.041 79.8718C120.041 79.0864 119.524 78.6594 118.513 78.6594H116.693V81.1071H118.513ZM130.49 73.9892V82.5219H128.76V75.5608H125.546V78.1208C125.546 81.3539 125.164 82.567 123.434 82.567C123.209 82.567 122.985 82.567 122.49 82.5219V80.9275H122.94C123.636 80.9275 123.839 80.8374 123.839 77.9863V73.9892H130.49ZM138.825 82.5219L138.152 80.7251H134.287L133.612 82.5219H131.815L135.186 73.9892H137.298L140.668 82.5219H138.825ZM134.849 79.2209H137.59L136.219 75.5157L134.849 79.2209ZM145.274 82.6342C142.803 82.6342 141.162 80.9053 141.162 78.2553C141.162 75.6509 142.825 73.877 145.274 73.877C147.095 73.877 148.442 74.7747 148.937 76.369L147.319 76.9527C146.982 75.8755 146.263 75.3362 145.252 75.3362C143.836 75.3362 142.915 76.4591 142.915 78.2553C142.915 80.052 143.814 81.1743 145.252 81.1743C146.263 81.1743 146.982 80.6357 147.319 79.5578L148.937 80.1415C148.442 81.6908 147.095 82.6342 145.274 82.6342ZM157.004 73.9892V75.5608H154.06V82.5219H152.33V75.5608H149.387V73.9892H157.004ZM158.42 82.5219V73.9892H160.15V82.5219H158.42Z" fill="currentColor"/>
<path d="M112.065 13.1402L111.391 11.3438H107.526L106.852 13.1402H105.055L108.425 4.60742H110.537L113.908 13.1402H112.065ZM108.088 9.83933H110.829L109.459 6.13433L108.088 9.83933ZM121.053 4.60742V6.17924H116.964V13.1402H115.233V4.60742H121.053ZM124.221 11.6132H128.693V13.1402H122.513V4.60742H128.58V6.13433H124.221V8.02051H127.57V9.50251H124.221V11.6132ZM135.883 4.60742H137.613V13.1402H135.883V9.54742H132.063V13.1402H130.333V4.60742H132.063V7.97561H135.883V4.60742ZM147.14 11.5683H148.152V14.9365H146.489V13.1402H139.995V4.60742H141.725V11.5683H145.41V4.60742H147.14V11.5683ZM149.747 13.1402V4.60742H151.477V13.1402H149.747ZM160.307 4.60742V13.1402H158.577V9.99651H156.78L154.938 13.1402H153.027L155.117 9.72706C154.084 9.32288 153.499 8.4696 153.499 7.27951C153.499 5.61787 154.69 4.60742 156.668 4.60742H160.307ZM156.802 8.58188H158.577V6.06697H156.802C155.769 6.06697 155.252 6.51606 155.252 7.32442C155.252 8.15524 155.769 8.58188 156.802 8.58188Z" fill="currentColor"/>
<path d="M56.809 21.9541C58.7864 21.9541 59.9773 22.987 59.9773 24.6486C59.9773 26.3327 58.7864 27.3431 56.809 27.3431H54.9216V30.4868H53.1914V21.9541H56.809ZM56.6068 25.951C57.6629 25.951 58.2246 25.5244 58.2246 24.6935C58.2246 23.8402 57.6629 23.4136 56.6068 23.4136H54.9216V25.951H56.6068ZM63.2803 28.9599H67.7518V30.4868H61.5726V21.9541H67.6394V23.481H63.2803V25.3672H66.6283V26.8492H63.2803V28.9599ZM75.2117 21.9541V23.5259H71.1222V30.4868H69.392V21.9541H75.2117ZM76.6723 30.4868V21.9541H78.4024V30.4868H76.6723ZM84.3569 30.599C81.8403 30.599 80.1775 28.8701 80.1775 26.2204C80.1775 23.6157 81.8627 21.8418 84.3569 21.8418C86.896 21.8418 88.5588 23.5708 88.5588 26.2204C88.5588 28.8251 86.851 30.599 84.3569 30.599ZM84.3569 29.0946C85.8174 29.0946 86.7836 27.9719 86.7836 26.2204C86.7836 24.469 85.8174 23.3463 84.3569 23.3463C82.8964 23.3463 81.9302 24.469 81.9302 26.2204C81.9302 27.9719 82.8964 29.0946 84.3569 29.0946ZM95.8614 21.9541H97.5916V30.4868H95.8614V26.8941H92.0415V30.4868H90.3114V21.9541H92.0415V25.3222H95.8614V21.9541ZM105.928 30.4868L105.254 28.6904H101.389L100.715 30.4868H98.9173L102.288 21.9541H104.4L107.77 30.4868H105.928ZM101.951 27.186H104.692L103.321 23.481L101.951 27.186ZM116.309 21.9541V30.4868H114.579V23.5259H111.365V26.0857C111.365 29.3192 110.984 30.5317 109.253 30.5317C109.029 30.5317 108.804 30.5317 108.31 30.4868V28.8925H108.759C109.456 28.8925 109.658 28.8027 109.658 25.951V21.9541H116.309ZM122.331 25.0977C124.308 25.0977 125.521 26.1082 125.521 27.7923C125.521 29.4539 124.308 30.4868 122.331 30.4868H118.691V21.9541H120.421V25.0977H122.331ZM122.196 29.0273C123.23 29.0273 123.769 28.6006 123.769 27.7473C123.769 26.9165 123.23 26.4899 122.196 26.4899H120.421V29.0273H122.196ZM132.712 21.9541H134.442V30.4868H132.712V26.8941H128.892V30.4868H127.162V21.9541H128.892V25.3222H132.712V21.9541ZM140.397 30.599C137.88 30.599 136.217 28.8701 136.217 26.2204C136.217 23.6157 137.902 21.8418 140.397 21.8418C142.935 21.8418 144.598 23.5708 144.598 26.2204C144.598 28.8251 142.89 30.599 140.397 30.599ZM140.397 29.0946C141.857 29.0946 142.823 27.9719 142.823 26.2204C142.823 24.469 141.857 23.3463 140.397 23.3463C138.936 23.3463 137.969 24.469 137.969 26.2204C137.969 27.9719 138.936 29.0946 140.397 29.0946ZM152.17 21.9541V23.5259H148.081V30.4868H146.351V21.9541H152.17ZM156.529 30.599C154.013 30.599 152.351 28.8701 152.351 26.2204C152.351 23.6157 154.035 21.8418 156.529 21.8418C159.069 21.8418 160.732 23.5708 160.732 26.2204C160.732 28.8251 159.024 30.599 156.529 30.599ZM156.529 29.0946C157.99 29.0946 158.956 27.9719 158.956 26.2204C158.956 24.469 157.99 23.3463 156.529 23.3463C155.069 23.3463 154.103 24.469 154.103 26.2204C154.103 27.9719 155.069 29.0946 156.529 29.0946Z" fill="currentColor"/>
<path d="M96.6606 39.2978C98.6379 39.2978 99.8288 40.3307 99.8288 41.9924C99.8288 43.6765 98.6379 44.6869 96.6606 44.6869H94.7731V47.8306H93.043V39.2978H96.6606ZM96.4583 43.2947C97.5144 43.2947 98.0762 42.8681 98.0762 42.0373C98.0762 41.184 97.5144 40.7574 96.4583 40.7574H94.7731V43.2947H96.4583ZM104.997 47.9428C102.48 47.9428 100.818 46.2138 100.818 43.5642C100.818 40.9595 102.503 39.1855 104.997 39.1855C107.536 39.1855 109.199 40.9145 109.199 43.5642C109.199 46.1689 107.491 47.9428 104.997 47.9428ZM104.997 46.4383C106.457 46.4383 107.424 45.3156 107.424 43.5642C107.424 41.8127 106.457 40.69 104.997 40.69C103.536 40.69 102.57 41.8127 102.57 43.5642C102.57 45.3156 103.536 46.4383 104.997 46.4383ZM115.535 43.4519C116.456 43.7663 116.973 44.4399 116.973 45.4055C116.973 46.9324 115.603 47.9428 113.513 47.9428C111.805 47.9428 110.435 47.112 109.873 45.8097L111.311 45.0686C111.67 45.9219 112.479 46.4383 113.513 46.4383C114.614 46.4383 115.266 46.0117 115.266 45.2258C115.266 44.5522 114.704 44.148 113.76 44.148H112.614V42.7783H113.76C114.479 42.7783 114.996 42.4415 114.996 41.8127C114.996 41.1166 114.457 40.6675 113.49 40.6675C112.502 40.6675 111.805 41.184 111.423 42.0373L109.94 41.431C110.502 40.0613 111.873 39.1855 113.535 39.1855C115.468 39.1855 116.704 40.1511 116.704 41.6107C116.704 42.4639 116.277 43.0927 115.535 43.4519ZM124.208 43.4743C125.017 43.8561 125.467 44.5522 125.467 45.4953C125.467 46.9324 124.411 47.8306 122.636 47.8306H118.636V39.2978H122.568C124.276 39.2978 125.309 40.1736 125.309 41.5657C125.309 42.419 124.905 43.0927 124.208 43.4743ZM122.299 40.7125H120.299V42.7783H122.299C123.175 42.7783 123.624 42.4415 123.624 41.7453C123.624 41.0493 123.175 40.7125 122.299 40.7125ZM122.321 46.4159C123.287 46.4159 123.759 46.0567 123.759 45.2932C123.759 44.5297 123.287 44.148 122.321 44.148H120.299V46.4159H122.321ZM132.926 39.2978H134.612V47.8306H132.926V41.925L128.905 47.8306H127.242V39.2978H128.95V45.1585L132.926 39.2978ZM143.645 39.2978V40.8696H140.701V47.8306H138.971V40.8696H136.027V39.2978H143.645ZM150.7 47.8306L147.981 43.901L146.79 45.0911V47.8306H145.06V39.2978H146.79V43.0927L150.431 39.2978H152.588L149.194 42.6884L152.768 47.8306H150.7ZM159.464 39.2978H161.261L158.61 45.8545C158.115 47.0895 157.441 47.9428 156.115 47.9428C154.88 47.9428 154.093 47.0671 154.048 45.8994L155.419 45.5626C155.442 46.2138 155.711 46.5506 156.183 46.5506C156.452 46.5506 156.699 46.4608 156.88 46.2138L152.992 39.2978H154.924L157.576 44.4848L159.464 39.2978Z" fill="currentColor"/>
<path d="M69.0626 56.6439H70.7927V65.1766H69.0626V61.8983H66.8605C64.8832 61.8983 63.8047 60.9776 63.8047 59.2037V56.6439H65.5348V59.0465C65.5348 59.9671 66.0067 60.3714 67.0178 60.3714H69.0626V56.6439ZM74.8822 63.6497H79.3537V65.1766H73.1745V56.6439H79.2414V58.1708H74.8822V60.057H78.2302V61.539H74.8822V63.6497ZM84.6116 56.6439C86.589 56.6439 87.7799 57.6768 87.7799 59.3384C87.7799 61.0225 86.589 62.033 84.6116 62.033H82.7242V65.1766H80.994V56.6439H84.6116ZM84.4094 60.6408C85.4654 60.6408 86.0272 60.2141 86.0272 59.3833C86.0272 58.5301 85.4654 58.1035 84.4094 58.1035H82.7242V60.6408H84.4094ZM94.9252 56.6439H96.6554V65.1766H94.9252V61.5839H91.1053V65.1766H89.3752V56.6439H91.1053V60.0121H94.9252V56.6439ZM99.0372 65.1766V56.6439H100.767V65.1766H99.0372ZM108.969 56.6439V58.2157H104.879V65.1766H103.149V56.6439H108.969ZM110.429 65.1766V56.6439H112.159V65.1766H110.429ZM120.114 60.8204C120.923 61.2022 121.372 61.8983 121.372 62.8413C121.372 64.2785 120.316 65.1766 118.541 65.1766H114.541V56.6439H118.474C120.181 56.6439 121.215 57.5196 121.215 58.9118C121.215 59.7651 120.811 60.4387 120.114 60.8204ZM118.204 58.0585H116.204V60.1244H118.204C119.08 60.1244 119.529 59.7875 119.529 59.0914C119.529 58.3954 119.08 58.0585 118.204 58.0585ZM118.227 63.762C119.192 63.762 119.665 63.4027 119.665 62.6392C119.665 61.8758 119.192 61.4941 118.227 61.4941H116.204V63.762H118.227ZM126.653 65.2889C124.181 65.2889 122.541 63.5599 122.541 60.9102C122.541 58.3055 124.203 56.5316 126.653 56.5316C128.473 56.5316 129.821 57.4298 130.315 59.024L128.697 59.6079C128.36 58.5301 127.641 57.9912 126.63 57.9912C125.215 57.9912 124.293 59.1139 124.293 60.9102C124.293 62.7066 125.192 63.8293 126.63 63.8293C127.641 63.8293 128.36 63.2904 128.697 62.2126L130.315 62.7965C129.821 64.3458 128.473 65.2889 126.653 65.2889ZM135.528 59.7875C137.505 59.7875 138.718 60.798 138.718 62.4821C138.718 64.1437 137.505 65.1766 135.528 65.1766H131.888V56.6439H133.618V59.7875H135.528ZM135.393 63.7171C136.426 63.7171 136.966 63.2904 136.966 62.4372C136.966 61.6064 136.426 61.1797 135.393 61.1797H133.618V63.7171H135.393ZM145.999 65.1766L143.28 61.2471L142.089 62.4372V65.1766H140.359V56.6439H142.089V60.4387L145.729 56.6439H147.887L144.493 60.0345L148.066 65.1766H145.999ZM152.313 65.2889C149.796 65.2889 148.134 63.5599 148.134 60.9102C148.134 58.3055 149.819 56.5316 152.313 56.5316C154.852 56.5316 156.515 58.2606 156.515 60.9102C156.515 63.515 154.807 65.2889 152.313 65.2889ZM152.313 63.7844C153.773 63.7844 154.739 62.6617 154.739 60.9102C154.739 59.1588 153.773 58.0361 152.313 58.0361C150.852 58.0361 149.886 59.1588 149.886 60.9102C149.886 62.6617 150.852 63.7844 152.313 63.7844ZM157.054 55.7457V54.3086H158.739V55.7457H157.054ZM159.548 55.7457V54.3086H161.234V55.7457H159.548ZM158.267 65.1766V56.6439H159.997V65.1766H158.267Z" fill="currentColor"/>
</g>
<defs>
<clipPath id="clip0_1768_4866">
<rect width="196" height="79" fill="white" transform="translate(52 4)"/>
</clipPath>
</defs>
</svg>

<?xml version="1.0" encoding="utf-8"?>
<!-- Generator: Adobe Illustrator 25.4.1, SVG Export Plug-In . SVG Version: 6.00 Build 0)  -->
<svg version="1.1" id="Layer_1" xmlns="http://www.w3.org/2000/svg" xmlns:xlink="http://www.w3.org/1999/xlink" x="0px" y="0px"
	 viewBox="0 0 300 87" style="enable-background:new 0 0 300 87;" xml:space="preserve">
<style type="text/css">
	.st0{clip-path:url(#SVGID_00000008122450442823643770000013483688287356082870_);}
	.st1{fill:currentColor;stroke:currentColor;stroke-width:0.3287;stroke-miterlimit:10;}
	.st2{fill:currentColor;stroke:currentColor;stroke-width:0.3451;stroke-miterlimit:10;}
	.st3{fill:currentColor;stroke:currentColor;stroke-width:0.3334;stroke-miterlimit:10;}
	.st4{fill:currentColor;stroke:currentColor;stroke-width:0.3287;stroke-miterlimit:10;}
	.st5{fill:currentColor;stroke:currentColor;stroke-width:0.3287;stroke-miterlimit:10;}
	.st6{fill:currentColor;stroke:currentColor;stroke-width:0.3451;stroke-miterlimit:10;}
	.st7{fill:currentColor;stroke:currentColor;stroke-width:0.3334;stroke-miterlimit:10;}
	.st8{fill:currentColor;stroke:currentColor;stroke-width:0.3287;stroke-miterlimit:10;}
	.st9{fill:currentColor;stroke:currentColor;stroke-width:0.3287;stroke-miterlimit:10;}
	.st10{fill:currentColor;stroke:currentColor;stroke-width:0.3451;stroke-miterlimit:10;}
	.st11{fill:currentColor;stroke:currentColor;stroke-width:0.3334;stroke-miterlimit:10;}
	.st12{fill:currentColor;stroke:currentColor;stroke-width:0.3287;stroke-miterlimit:10;}
	.st13{fill:currentColor;}
</style>
<g>
	<defs>
		<rect id="SVGID_1_" x="52" y="4" width="196" height="79"/>
	</defs>
	<clipPath id="SVGID_00000103977546452192043980000007487002286610879380_">
		<use xlink:href="#SVGID_1_"  style="overflow:visible;"/>
	</clipPath>
	<g style="clip-path:url(#SVGID_00000103977546452192043980000007487002286610879380_);">
		<path class="st1" d="M217.2,82.6h-13.1L216.5,44h13.1L217.2,82.6z"/>
		<path class="st2" d="M229.7,43.6h-13.2L204,4.7h12.7L229.7,43.6z"/>
		<path class="st3" d="M247.7,43.5l-13,0.1L204,4.7l12.8,0L247.7,43.5z"/>
		<path class="st4" d="M217.3,82.6l-12.9-0.1L234.7,44l13,0L217.3,82.6z"/>
		<path class="st5" d="M199.3,82.6h-13.1L198.6,44h13.1L199.3,82.6z"/>
		<path class="st6" d="M211.8,43.6h-13.2L186,4.7h12.7L211.8,43.6z"/>
		<path class="st7" d="M229.7,43.5l-13,0.1L186,4.7l12.8,0L229.7,43.5z"/>
		<path class="st8" d="M199.3,82.6l-12.9-0.1L216.8,44l13,0L199.3,82.6z"/>
		<path class="st9" d="M181.6,82.6h-13.1L180.9,44H194L181.6,82.6z"/>
		<path class="st10" d="M194.1,43.6h-13.2L168.3,4.7H181L194.1,43.6z"/>
		<path class="st11" d="M212,43.5l-13,0.1L168.3,4.7l12.8,0L212,43.5z"/>
		<path class="st12" d="M181.6,82.6l-12.9-0.1L199,44l13,0L181.6,82.6z"/>
		<path class="st13" d="M109,82.6c-2.5,0-4.2-1.7-4.2-4.4c0-2.6,1.7-4.4,4.2-4.4c2.5,0,4.2,1.7,4.2,4.4
			C113.2,80.9,111.5,82.6,109,82.6z M109,81.1c1.5,0,2.4-1.1,2.4-2.9c0-1.8-1-2.9-2.4-2.9c-1.5,0-2.4,1.1-2.4,2.9
			C106.6,80,107.6,81.1,109,81.1z M118.7,77.3c1.9,0,3.1,1,3.1,2.6c0,1.7-1.2,2.7-3.1,2.7H115V74h6.1v1.5h-4.4v1.8H118.7z
			 M118.5,81.1c1,0,1.5-0.4,1.5-1.2c0-0.8-0.5-1.2-1.5-1.2h-1.8v2.4H118.5z M130.5,74v8.5h-1.7v-7h-3.2v2.6c0,3.2-0.4,4.4-2.1,4.4
			c-0.2,0-0.4,0-0.9,0v-1.6h0.5c0.7,0,0.9-0.1,0.9-2.9v-4H130.5z M138.8,82.5l-0.7-1.8h-3.9l-0.7,1.8h-1.8l3.4-8.5h2.1l3.4,8.5
			H138.8z M134.8,79.2h2.7l-1.4-3.7L134.8,79.2z M145.3,82.6c-2.5,0-4.1-1.7-4.1-4.4c0-2.6,1.7-4.4,4.1-4.4c1.8,0,3.2,0.9,3.7,2.5
			l-1.6,0.6c-0.3-1.1-1.1-1.6-2.1-1.6c-1.4,0-2.3,1.1-2.3,2.9c0,1.8,0.9,2.9,2.3,2.9c1,0,1.7-0.5,2.1-1.6l1.6,0.6
			C148.4,81.7,147.1,82.6,145.3,82.6z M157,74v1.6h-2.9v7h-1.7v-7h-2.9V74H157z M158.4,82.5V74h1.7v8.5H158.4z"/>
		<path class="st13" d="M112.1,13.1l-0.7-1.8h-3.9l-0.7,1.8h-1.8l3.4-8.5h2.1l3.4,8.5H112.1z M108.1,9.8h2.7l-1.4-3.7L108.1,9.8z
			 M121.1,4.6v1.6H117v7h-1.7V4.6H121.1z M124.2,11.6h4.5v1.5h-6.2V4.6h6.1v1.5h-4.4V8h3.3v1.5h-3.3V11.6z M135.9,4.6h1.7v8.5h-1.7
			V9.5h-3.8v3.6h-1.7V4.6h1.7V8h3.8V4.6z M147.1,11.6h1v3.4h-1.7v-1.8H140V4.6h1.7v7h3.7v-7h1.7V11.6z M149.7,13.1V4.6h1.7v8.5
			H149.7z M160.3,4.6v8.5h-1.7V10h-1.8l-1.8,3.1H153l2.1-3.4c-1-0.4-1.6-1.3-1.6-2.4c0-1.7,1.2-2.7,3.2-2.7H160.3z M156.8,8.6h1.8
			V6.1h-1.8c-1,0-1.6,0.4-1.6,1.3C155.3,8.2,155.8,8.6,156.8,8.6z"/>
		<path class="st13" d="M56.8,22c2,0,3.2,1,3.2,2.7c0,1.7-1.2,2.7-3.2,2.7h-1.9v3.1h-1.7V22H56.8z M56.6,26c1.1,0,1.6-0.4,1.6-1.3
			c0-0.9-0.6-1.3-1.6-1.3h-1.7V26H56.6z M63.3,29h4.5v1.5h-6.2V22h6.1v1.5h-4.4v1.9h3.3v1.5h-3.3V29z M75.2,22v1.6h-4.1v7h-1.7V22
			H75.2z M76.7,30.5V22h1.7v8.5H76.7z M84.4,30.6c-2.5,0-4.2-1.7-4.2-4.4c0-2.6,1.7-4.4,4.2-4.4c2.5,0,4.2,1.7,4.2,4.4
			C88.6,28.8,86.9,30.6,84.4,30.6z M84.4,29.1c1.5,0,2.4-1.1,2.4-2.9c0-1.8-1-2.9-2.4-2.9c-1.5,0-2.4,1.1-2.4,2.9
			C81.9,28,82.9,29.1,84.4,29.1z M95.9,22h1.7v8.5h-1.7v-3.6H92v3.6h-1.7V22H92v3.4h3.8V22z M105.9,30.5l-0.7-1.8h-3.9l-0.7,1.8
			h-1.8l3.4-8.5h2.1l3.4,8.5H105.9z M102,27.2h2.7l-1.4-3.7L102,27.2z M116.3,22v8.5h-1.7v-7h-3.2v2.6c0,3.2-0.4,4.4-2.1,4.4
			c-0.2,0-0.4,0-0.9,0v-1.6h0.4c0.7,0,0.9-0.1,0.9-2.9v-4H116.3z M122.3,25.1c2,0,3.2,1,3.2,2.7c0,1.7-1.2,2.7-3.2,2.7h-3.6V22h1.7
			v3.1H122.3z M122.2,29c1,0,1.6-0.4,1.6-1.3c0-0.8-0.5-1.3-1.6-1.3h-1.8V29H122.2z M132.7,22h1.7v8.5h-1.7v-3.6h-3.8v3.6h-1.7V22
			h1.7v3.4h3.8V22z M140.4,30.6c-2.5,0-4.2-1.7-4.2-4.4c0-2.6,1.7-4.4,4.2-4.4c2.5,0,4.2,1.7,4.2,4.4
			C144.6,28.8,142.9,30.6,140.4,30.6z M140.4,29.1c1.5,0,2.4-1.1,2.4-2.9c0-1.8-1-2.9-2.4-2.9c-1.5,0-2.4,1.1-2.4,2.9
			C138,28,138.9,29.1,140.4,29.1z M152.2,22v1.6h-4.1v7h-1.7V22H152.2z M156.5,30.6c-2.5,0-4.2-1.7-4.2-4.4c0-2.6,1.7-4.4,4.2-4.4
			c2.5,0,4.2,1.7,4.2,4.4C160.7,28.8,159,30.6,156.5,30.6z M156.5,29.1c1.5,0,2.4-1.1,2.4-2.9c0-1.8-1-2.9-2.4-2.9
			c-1.5,0-2.4,1.1-2.4,2.9C154.1,28,155.1,29.1,156.5,29.1z"/>
		<path class="st13" d="M96.7,39.3c2,0,3.2,1,3.2,2.7c0,1.7-1.2,2.7-3.2,2.7h-1.9v3.1H93v-8.5H96.7z M96.5,43.3
			c1.1,0,1.6-0.4,1.6-1.3c0-0.9-0.6-1.3-1.6-1.3h-1.7v2.5H96.5z M105,47.9c-2.5,0-4.2-1.7-4.2-4.4c0-2.6,1.7-4.4,4.2-4.4
			c2.5,0,4.2,1.7,4.2,4.4C109.2,46.2,107.5,47.9,105,47.9z M105,46.4c1.5,0,2.4-1.1,2.4-2.9c0-1.8-1-2.9-2.4-2.9
			c-1.5,0-2.4,1.1-2.4,2.9C102.6,45.3,103.5,46.4,105,46.4z M115.5,43.5c0.9,0.3,1.4,1,1.4,2c0,1.5-1.4,2.5-3.5,2.5
			c-1.7,0-3.1-0.8-3.6-2.1l1.4-0.7c0.4,0.9,1.2,1.4,2.2,1.4c1.1,0,1.8-0.4,1.8-1.2c0-0.7-0.6-1.1-1.5-1.1h-1.1v-1.4h1.1
			c0.7,0,1.2-0.3,1.2-1c0-0.7-0.5-1.1-1.5-1.1c-1,0-1.7,0.5-2.1,1.4l-1.5-0.6c0.6-1.4,1.9-2.2,3.6-2.2c1.9,0,3.2,1,3.2,2.4
			C116.7,42.5,116.3,43.1,115.5,43.5z M124.2,43.5c0.8,0.4,1.3,1.1,1.3,2c0,1.4-1.1,2.3-2.8,2.3h-4v-8.5h3.9c1.7,0,2.7,0.9,2.7,2.3
			C125.3,42.4,124.9,43.1,124.2,43.5z M122.3,40.7h-2v2.1h2c0.9,0,1.3-0.3,1.3-1C123.6,41,123.2,40.7,122.3,40.7z M122.3,46.4
			c1,0,1.4-0.4,1.4-1.1s-0.5-1.1-1.4-1.1h-2v2.3H122.3z M132.9,39.3h1.7v8.5h-1.7v-5.9l-4,5.9h-1.7v-8.5h1.7v5.9L132.9,39.3z
			 M143.6,39.3v1.6h-2.9v7H139v-7H136v-1.6H143.6z M150.7,47.8l-2.7-3.9l-1.2,1.2v2.7h-1.7v-8.5h1.7v3.8l3.6-3.8h2.2l-3.4,3.4
			l3.6,5.1H150.7z M159.5,39.3h1.8l-2.7,6.6c-0.5,1.2-1.2,2.1-2.5,2.1c-1.2,0-2-0.9-2.1-2l1.4-0.3c0,0.7,0.3,1,0.8,1
			c0.3,0,0.5-0.1,0.7-0.3l-3.9-6.9h1.9l2.7,5.2L159.5,39.3z"/>
		<path class="st13" d="M69.1,56.6h1.7v8.5h-1.7v-3.3h-2.2c-2,0-3.1-0.9-3.1-2.7v-2.6h1.7V59c0,0.9,0.5,1.3,1.5,1.3h2V56.6z
			 M74.9,63.6h4.5v1.5h-6.2v-8.5h6.1v1.5h-4.4v1.9h3.3v1.5h-3.3V63.6z M84.6,56.6c2,0,3.2,1,3.2,2.7c0,1.7-1.2,2.7-3.2,2.7h-1.9v3.1
			H81v-8.5H84.6z M84.4,60.6c1.1,0,1.6-0.4,1.6-1.3c0-0.9-0.6-1.3-1.6-1.3h-1.7v2.5H84.4z M94.9,56.6h1.7v8.5h-1.7v-3.6h-3.8v3.6
			h-1.7v-8.5h1.7V60h3.8V56.6z M99,65.2v-8.5h1.7v8.5H99z M109,56.6v1.6h-4.1v7h-1.7v-8.5H109z M110.4,65.2v-8.5h1.7v8.5H110.4z
			 M120.1,60.8c0.8,0.4,1.3,1.1,1.3,2c0,1.4-1.1,2.3-2.8,2.3h-4v-8.5h3.9c1.7,0,2.7,0.9,2.7,2.3C121.2,59.8,120.8,60.4,120.1,60.8z
			 M118.2,58.1h-2v2.1h2c0.9,0,1.3-0.3,1.3-1C119.5,58.4,119.1,58.1,118.2,58.1z M118.2,63.8c1,0,1.4-0.4,1.4-1.1
			c0-0.8-0.5-1.1-1.4-1.1h-2v2.3H118.2z M126.7,65.3c-2.5,0-4.1-1.7-4.1-4.4c0-2.6,1.7-4.4,4.1-4.4c1.8,0,3.2,0.9,3.7,2.5l-1.6,0.6
			c-0.3-1.1-1.1-1.6-2.1-1.6c-1.4,0-2.3,1.1-2.3,2.9c0,1.8,0.9,2.9,2.3,2.9c1,0,1.7-0.5,2.1-1.6l1.6,0.6
			C129.8,64.3,128.5,65.3,126.7,65.3z M135.5,59.8c2,0,3.2,1,3.2,2.7c0,1.7-1.2,2.7-3.2,2.7h-3.6v-8.5h1.7v3.1H135.5z M135.4,63.7
			c1,0,1.6-0.4,1.6-1.3c0-0.8-0.5-1.3-1.6-1.3h-1.8v2.5H135.4z M146,65.2l-2.7-3.9l-1.2,1.2v2.7h-1.7v-8.5h1.7v3.8l3.6-3.8h2.2
			l-3.4,3.4l3.6,5.1H146z M152.3,65.3c-2.5,0-4.2-1.7-4.2-4.4c0-2.6,1.7-4.4,4.2-4.4c2.5,0,4.2,1.7,4.2,4.4
			C156.5,63.5,154.8,65.3,152.3,65.3z M152.3,63.8c1.5,0,2.4-1.1,2.4-2.9c0-1.8-1-2.9-2.4-2.9c-1.5,0-2.4,1.1-2.4,2.9
			C149.9,62.7,150.9,63.8,152.3,63.8z M157.1,55.7v-1.4h1.7v1.4H157.1z M159.5,55.7v-1.4h1.7v1.4H159.5z M158.3,65.2v-8.5h1.7v8.5
			H158.3z"/>
	</g>
</g>
</svg>
